X:1
T:Living for Jesus
T:Living for Jesus
T:Charles Frederick Weigele
T:Charles Frederick Weigele, 1903
T:Public Domain Courtesy of the Cyber Hymnal™
C:Charles Frederick Weigele
Z:Public Domain
Z:Courtesy of the Cyber Hymnal™
%%score ( 1 2 ) ( 3 4 )
L:1/8
M:9/8
K:Eb
V:1 treble 
V:2 treble 
V:3 bass 
V:4 bass 
V:1
 [EG][EG][EG] | [EG]3 [EG]3 [DA]2 [DA] | [DA]6 [DF][DF][DF] | [DF]3 [DF]3 [EG]2 [EG] | %4
w: 1.~Liv- ing for|Je- sus— O what|peace! Riv- ers of|plea- sure nev- er|
w: 2.~Liv- ing for|Je- sus— O what|rest! Pleas- ing my|Sav- ior, I am|
w: 3.~Liv- ing for|Je- sus ev- ery-|where, All of my|bur- den He doth|
w: 4.~Liv- ing for|Je- sus till at|last In- to His|glo- ry I have|
 [EG]6 [GB][GB][GB] | [GB]3 [EG]3 [Ac]2 [Ac] | [Ac]6 [Ac][GB][FA] | [EG]3 [EG]3 [DG]2 [DF] | E6 || %9
w: cease. Tri- als may|come, yet I’ll not|fear. Liv- ing for|Je- sus, He is|near.|
w: blest. On- ly to|live for Him a-|lone, Do- ing His|will till life is|done!|
w: bear. Friends may for-|sake me; He’ll be|true. Trust- ing in|Him, He’ll guide me|through.|
w: passed; There to be-|hold Him on His|throne, Hear from His|lips, “My child, well|done!”|
"^Refrain" [EG][FA][^F=A] | [GB]3 [EG]3 [GB]2 [^F=A] | [FA]6 [DF][EG][FA] | %12
w: |||
w: |||
w: Help me to|serve Thee more and|more. Help me to|
w: |||
 [Ad]3 [Ac]3 [Ad]2 [Ac] | [GB]6 [EG][FA][^F=A] | [GB]3 [EG]3 [GB]2 [G=B] | [Ac]6 [Ac][GB][FA] | %16
w: ||||
w: ||||
w: praise Thee o’er and|o’er; Live in Thy|pre- sence day by|day, Nev- er to|
w: ||||
 [EG]3 [EG]3 [DG]2 [DF] | [B,E]6 |] %18
w: ||
w: ||
w: turn from Thee a-|way.|
w: ||
V:2
 x3 | x9 | x9 | x9 | x9 | x9 | x9 | x9 | E6 || x3 | x9 | x9 | x9 | x9 | x9 | x9 | x9 | x6 |] %18
V:3
 [E,B,][E,B,][E,B,] | [E,B,]3 [E,B,]3 [F,B,]2 [F,B,] | [F,B,]6 [B,,B,][B,,B,][B,,B,] | %3
 [B,,B,]3 [B,,B,]3 [E,B,]2 [E,B,] | [E,B,]6 [E,E][E,E][E,E] | [E,E]3 [E,B,]3 [A,,E]2 [A,,E] | %6
 [A,E]6 [A,E][A,E][A,E] | B,3 B,3 [B,,B,]2 [B,,A,] | [E,G,]6 || [E,B,][E,B,][E,E] | %10
 [E,E]3 [E,B,]3 [E,E]2 [E,C] | [B,D]6 B,B,[B,D] | [B,,B,]3 [B,,B,]3 [B,,B,]2 [B,,D] | %13
 [E,E]6 [E,B,][E,B,][E,E] | [E,E]3 [E,B,]3 [E,E]2 [E,E] | [A,E]6 [A,E][A,E][A,C] | %16
 B,3 B,3 [B,,B,]2 [B,,A,] | [E,G,]6 |] %18
V:4
 x3 | x9 | x9 | x9 | x9 | x9 | x9 | B,3 B,3 x3 | x6 || x3 | x9 | x9 | x9 | x9 | x9 | x9 | %16
 B,3 B,3 x3 | x6 |] %18

